/* XPM */
static char * frame_icon_xpm[] = {
"128 128 8 1",
" 	c None",
".	c #AF3838",
"+	c #B03938",
"@	c #B03738",
"#	c #AF3938",
"$	c #B03838",
"%	c #AD3939",
"&	c #AE3839",
"                                                                                                                                ",
"                                                                                                                                ",
"                                                                                                                                ",
"                                                                                                                                ",
"                                                                                                                                ",
"                                                                                                                                ",
"                                                                                                                                ",
"                                                                                                                                ",
"                                                                                                                                ",
"                                                                                                                                ",
"                                                                                                                                ",
"                                                                                                                                ",
"                                                                                                                                ",
"                                                                                                                                ",
"                                                                                                                                ",
"                                                                                                                                ",
"                                                                                                                                ",
"                                                                                                                                ",
"                                                                                                                                ",
"                                                                                                                                ",
"                                                                                                                                ",
"                                                                                                                                ",
"                                                                                                                                ",
"     ..........................................................................................................+                ",
"     .............................................................................................................              ",
"     ...............................................................................................................            ",
"     ................................................................................................................@          ",
"     ..................................................................................................................         ",
"     ..................................................................................................................         ",
"     ...................................................................................................................        ",
"     ...................................................................................................................@       ",
"     ....................................................................................................................       ",
"     ....................................................................................................................       ",
"     ....................................................................................................................@      ",
"     .....................................................................................................................      ",
"     .....................................................................................................................      ",
"                                                                                                     .....................      ",
"                                                                                                      ....................      ",
"                                                                                                       ...................      ",
"                                                                                                       ...................      ",
"                                                                                                        ..................      ",
"                                                                                                        ..................      ",
"                                                                                                        #.................      ",
"                                                                                                        ..................      ",
"                                                                                                        $.................      ",
"                                                                                                        %.................      ",
"                                                                                                        ..................      ",
"                                                                                                        &.................      ",
"                                                                                                        ..................      ",
"                                                                                                        $.................      ",
"                                                                                                        ..................      ",
"                                                                                                        ..................      ",
"                                                                                                       $..................      ",
"                                                                                                       ..................&      ",
"                                                                                                      $..................#      ",
"                                                                                                   #&....................       ",
"     ....................................................................................................................       ",
"     ...................................................................................................................#       ",
"     ...................................................................................................................        ",
"     ..................................................................................................................         ",
"     ................................................................................................................           ",
"     .................................................................................................................          ",
"     ..................................................................................................................$        ",
"     ...................................................................................................................@       ",
"     ....................................................................................................................       ",
"     ....................................................................................................................       ",
"     ....................................................................................................................+      ",
"     ....................................................................................................................@      ",
"     .....................................................................................................................      ",
"                                                                                                     .....................      ",
"                                                                                                      &...................      ",
"                                                                                                       ...................      ",
"                                                                                                        ..................      ",
"                                                                                                        ..................      ",
"                                                                                                        @.................      ",
"                                                                                                         .................      ",
"                                                                                                         .................      ",
"                                                                                                         .................      ",
"                                                                                                         .................      ",
"                                                                                                         .................      ",
"                                                                                                         .................      ",
"                                                                                                         .................      ",
"                                                                                                         .................      ",
"                                                                                                        ..................      ",
"                                                                                                        ..................      ",
"                                                                                                        ..................      ",
"                                                                                                       &..................      ",
"                                                                                                       ...................      ",
"                                                                                                      ...................$      ",
"     ....................................................................................................................       ",
"     &...................................................................................................................       ",
"     ...................................................................................................................&       ",
"     @..................................................................................................................        ",
"     &.................................................................................................................#        ",
"     ..................................................................................................................         ",
"     .................................................................................................................          ",
"     +...............................................................................................................           ",
"     ...............................................................................................................            ",
"     ..............................................................................................................             ",
"     @..........................................................................................................$               ",
"     ..........................................................................................................                 ",
"     .....................................................................................................#@                    ",
"      @@@@@@@@@@@@@@@@@@@@@@@@@@@@@@@@@@@@@@@@@@@@@@@@@@@@@@@@@@@@@@@@@@@@@@@@@@@@@@@@@@@@@@@@@@@@@@@@                          ",
"                                                                                                                                ",
"                                                                                                                                ",
"                                                                                                                                ",
"                                                                                                                                ",
"                                                                                                                                ",
"                                                                                                                                ",
"                                                                                                                                ",
"                                                                                                                                ",
"                                                                                                                                ",
"                                                                                                                                ",
"                                                                                                                                ",
"                                                                                                                                ",
"                                                                                                                                ",
"                                                                                                                                ",
"                                                                                                                                ",
"                                                                                                                                ",
"                                                                                                                                ",
"                                                                                                                                ",
"                                                                                                                                ",
"                                                                                                                                ",
"                                                                                                                                ",
"                                                                                                                                ",
"                                                                                                                                ",
"                                                                                                                                ",
"                                                                                                                                "};
